public/avatar/hat/34.svg

<svg xmlns:xlink="http://www.w3.org/1999/xlink" height="92.9" width="100.7" xmlns="http://www.w3.org/2000/svg"><use height="22" transform="translate(24.15 41.75)" width="28.6" xlink:href="#a"/><defs><g id="a"><path d="M.2-3.25v.1L.15-3.2H.1l-.4-3.05.5 3-.05.05.05-.05M5.6-5.1l.3 3q1.3-1 3-2 1.35 3.1.3 5.65.25-2.05-.3-5.65L5.85-1.9 5.6-5.1M-5.8 2.15l.55-1.6.65-1.4-1.15 2.95-.15.45.1-.4.05-.05-.05.05m13.75 1.3H8l-.05.05v-.05" fill="#bd0000" fill-rule="evenodd" transform="translate(14.5 8)"/><path d="M2.95-2.2Q2.5-1.15 2.1 1.5L5.45-.85 4.8-6.1 2.95-2.2M.2-3.15Q2.25-5.3 4.15-6.7l1.2-.8.15 1.35.1 1.05.25 3.2L8.9-4.1q.55 3.6.3 5.65L9 2.4l-.3 1.7.75.7q1.75 2.05 2.85 4.35 1 2.05 1.3 4.35-.65-.75.2.45L9 8.1Q7.4 5.5 6.25 4.9l-3.1.25-.2.05-3.6.65-3.1-.85q-1.8-.65-2.65-.25-1.2.6-3.6 4.75-1.15 1.85-4 3.85.9-2.85 2.9-6.2t5.3-5l-.1.4.15-.45L-4.6-.85l1.4-2.2 2-2.3.9-.9.4 3.05h.05l.05.05m7.75 6.6.7-3.1-.15-3.5Q7.15-1.8 6.3.45l-.2 1.8L7.35 3.3l.6.15v.05L8 3.45h-.05M-.6-4.75l-.1.25-.95 2.3L-2 .25l1.75-2.4-.35-2.6" fill="#bcd2e9" fill-rule="evenodd" transform="translate(14.5 8)"/><path d="M2.95-2.2 4.8-6.1l.65 5.25L2.1 1.5q.4-2.65.85-3.7m5 5.65-.6-.15L6.1 2.25l.2-1.8q.85-2.25 2.2-3.6l.15 3.5-.7 3.1M-.6-4.75l.35 2.6L-2 .25l.35-2.45.95-2.3.1-.25" fill="#fff" fill-rule="evenodd" transform="translate(14.5 8)"/><path d="M4.15-6.7 3.1-6 .2-3.25l-.05.05H.1l-.4-3.05-.9.9-2 2.3-1.4 2.1v.1L-5.75 2.1l-.15.45M4.15-6.7l1.2-.8.15 1.35.1 1.05.25 3.2L8.9-4.1q.55 3.6.3 5.65L9 2.4l-.3 1.7.75.7q1.75 2.05 2.85 4.35 1 2.05 1.3 4.35m-27.6-.15q.9-2.85 2.9-6.2t5.3-5l.05-.05" fill="none" stroke="#69c" stroke-linecap="round" stroke-linejoin="round" transform="translate(14.5 8)"/></g></defs></svg>

<?xml version="1.0" encoding="UTF-8" standalone="no"?>
<svg xmlns:xlink="http://www.w3.org/1999/xlink" height="92.9px" width="100.7px" xmlns="http://www.w3.org/2000/svg">
  <g transform="matrix(1.0, 0.0, 0.0, 1.0, 38.65, 49.75)">
    <use height="22.0" transform="matrix(1.0, 0.0, 0.0, 1.0, -14.5, -8.0)" width="28.6" xlink:href="#shape0"/>
  </g>
  <defs>
    <g id="shape0" transform="matrix(1.0, 0.0, 0.0, 1.0, 14.5, 8.0)">
      <path d="M0.2 -3.25 L0.2 -3.15 0.15 -3.2 0.1 -3.2 -0.3 -6.25 0.2 -3.25 0.15 -3.2 0.2 -3.25 M5.6 -5.1 L5.9 -2.1 Q7.2 -3.1 8.9 -4.1 10.25 -1.0 9.2 1.55 9.45 -0.5 8.9 -4.1 L5.85 -1.9 5.6 -5.1 M-5.8 2.15 L-5.25 0.55 -4.6 -0.85 -5.75 2.1 -5.9 2.55 -5.8 2.15 -5.75 2.1 -5.8 2.15 M7.95 3.45 L8.0 3.45 7.95 3.5 7.95 3.45" fill="#bd0000" fill-rule="evenodd" stroke="none"/>
      <path d="M2.95 -2.2 Q2.5 -1.15 2.1 1.5 L5.45 -0.85 4.8 -6.1 2.95 -2.2 M0.2 -3.15 Q2.25 -5.3 4.15 -6.7 L5.35 -7.5 5.5 -6.15 5.6 -5.1 5.85 -1.9 8.9 -4.1 Q9.45 -0.5 9.2 1.55 L9.0 2.4 8.7 4.1 9.45 4.8 Q11.2 6.85 12.3 9.15 13.3 11.2 13.6 13.5 12.95 12.75 13.8 13.95 L9.0 8.1 Q7.4 5.5 6.25 4.9 L3.15 5.15 2.95 5.2 -0.65 5.85 -3.75 5.0 Q-5.55 4.35 -6.4 4.75 -7.6 5.35 -10.0 9.5 -11.15 11.35 -14.0 13.35 -13.1 10.5 -11.1 7.15 -9.1 3.8 -5.8 2.15 L-5.9 2.55 -5.75 2.1 -4.6 -0.85 -3.2 -3.05 -1.2 -5.35 -0.3 -6.25 0.1 -3.2 0.15 -3.2 0.2 -3.15 M7.95 3.45 L8.65 0.35 8.5 -3.15 Q7.15 -1.8 6.3 0.45 L6.1 2.25 7.35 3.3 7.95 3.45 7.95 3.5 8.0 3.45 7.95 3.45 M-0.6 -4.75 L-0.7 -4.5 -1.65 -2.2 -2.0 0.25 -0.25 -2.15 -0.6 -4.75" fill="#bcd2e9" fill-rule="evenodd" stroke="none"/>
      <path d="M2.95 -2.2 L4.8 -6.1 5.45 -0.85 2.1 1.5 Q2.5 -1.15 2.95 -2.2 M7.95 3.45 L7.35 3.3 6.1 2.25 6.3 0.45 Q7.15 -1.8 8.5 -3.15 L8.65 0.35 7.95 3.45 M-0.6 -4.75 L-0.25 -2.15 -2.0 0.25 -1.65 -2.2 -0.7 -4.5 -0.6 -4.75" fill="#ffffff" fill-rule="evenodd" stroke="none"/>
      <path d="M4.15 -6.7 L3.1 -6.0 0.2 -3.25 0.15 -3.2 0.1 -3.2 -0.3 -6.25 -1.2 -5.35 -3.2 -3.05 -4.6 -0.95 -4.6 -0.85 -5.75 2.1 -5.9 2.55 M4.15 -6.7 L5.35 -7.5 5.5 -6.15 5.6 -5.1 5.85 -1.9 8.9 -4.1 Q9.45 -0.5 9.2 1.55 L9.0 2.4 8.7 4.1 9.45 4.8 Q11.2 6.85 12.3 9.15 13.3 11.2 13.6 13.5 M-14.0 13.35 Q-13.1 10.5 -11.1 7.15 -9.1 3.8 -5.8 2.15 L-5.75 2.1" fill="none" stroke="#6699cc" stroke-linecap="round" stroke-linejoin="round" stroke-width="1.0"/>
    </g>
  </defs>
</svg>
